www/assets/images/test_icons/flags/PK.svg

<svg fill="none" height="15" viewBox="0 0 21 15" width="21" xmlns="http://www.w3.org/2000/svg" xmlns:xlink="http://www.w3.org/1999/xlink"><mask id="a" height="15" maskUnits="userSpaceOnUse" width="21" x="0" y="0"><path d="m19 0h-17c-1.10457 0-2 .89543-2 2v11c0 1.1046.89543 2 2 2h17c1.1046 0 2-.8954 2-2v-11c0-1.10457-.8954-2-2-2z" fill="#fff"/></mask><g mask="url(#a)"><path d="m19 0h-17c-1.10457 0-2 .89543-2 2v11c0 1.1046.89543 2 2 2h17c1.1046 0 2-.8954 2-2v-11c0-1.10457-.8954-2-2-2z" fill="#00421a"/><path clip-rule="evenodd" d="m15.974 5.974c-.066.596-.254 1.026-.474 1.026s-.408-.43-.474-1.026c-.596-.066-1.026-.254-1.026-.474s.43-.408 1.026-.474c.066-.596.254-1.026.474-1.026s.408.43.474 1.026c.596.066 1.026.254 1.026.474s-.43.408-1.026.474zm-15.974-5.974h6v15h-6z" fill="#fff" fill-rule="evenodd"/><path clip-rule="evenodd" d="m17.97 6.968c.02.175.03.352.03.532 0 2.485-2.015 4.5-4.5 4.5s-4.5-2.015-4.5-4.5 2.015-4.5 4.5-4.5c.18 0 .357.01.532.03-1.712.23-3.032 1.697-3.032 3.47 0 1.933 1.567 3.5 3.5 3.5 1.774 0 3.24-1.32 3.47-3.032z" fill="#fff" fill-rule="evenodd"/><path d="m19 .5h-17c-.82843 0-1.5.67157-1.5 1.5v11c0 .8284.67157 1.5 1.5 1.5h17c.8284 0 1.5-.6716 1.5-1.5v-11c0-.82843-.6716-1.5-1.5-1.5z" stroke="#000" stroke-opacity=".1"/></g></svg>

<svg width="21" height="15" viewBox="0 0 21 15" fill="none" xmlns="http://www.w3.org/2000/svg">
<mask id="mask0_3_70" style="mask-type:alpha" maskUnits="userSpaceOnUse" x="0" y="0" width="21" height="15">
<path d="M19 0H2C0.89543 0 0 0.89543 0 2V13C0 14.1046 0.89543 15 2 15H19C20.1046 15 21 14.1046 21 13V2C21 0.89543 20.1046 0 19 0Z" fill="white"/>
</mask>
<g mask="url(#mask0_3_70)">
<path d="M19 0H2C0.89543 0 0 0.89543 0 2V13C0 14.1046 0.89543 15 2 15H19C20.1046 15 21 14.1046 21 13V2C21 0.89543 20.1046 0 19 0Z" fill="#00421A"/>
<path fill-rule="evenodd" clip-rule="evenodd" d="M15.974 5.974C15.908 6.57 15.72 7 15.5 7C15.28 7 15.092 6.57 15.026 5.974C14.43 5.908 14 5.72 14 5.5C14 5.28 14.43 5.092 15.026 5.026C15.092 4.43 15.28 4 15.5 4C15.72 4 15.908 4.43 15.974 5.026C16.57 5.092 17 5.28 17 5.5C17 5.72 16.57 5.908 15.974 5.974ZM0 0H6V15H0V0Z" fill="white"/>
<path fill-rule="evenodd" clip-rule="evenodd" d="M17.97 6.968C17.99 7.143 18 7.32 18 7.5C18 9.985 15.985 12 13.5 12C11.015 12 9 9.985 9 7.5C9 5.015 11.015 3 13.5 3C13.68 3 13.857 3.01 14.032 3.03C12.32 3.26 11 4.727 11 6.5C11 8.433 12.567 10 14.5 10C16.274 10 17.74 8.68 17.97 6.968Z" fill="white"/>
<path d="M19 0.5H2C1.17157 0.5 0.5 1.17157 0.5 2V13C0.5 13.8284 1.17157 14.5 2 14.5H19C19.8284 14.5 20.5 13.8284 20.5 13V2C20.5 1.17157 19.8284 0.5 19 0.5Z" stroke="black" stroke-opacity="0.1"/>
</g>
</svg>
